X:1
T: Gillan's Apples
C:
R:Jig
Q:180
K:D
M:6/8
L:1/16
|:(3ABc|d2A2F2 F2A2F2|F2A2F2 F4d2|A2F2E2 E2F2E2|E2F2E2 E2F2A2|d2A2F2 F2E2F2|D2F2A2 d4e2|f2e2d2 c2d2B2|A6 A4:|
|:d2|c2A2e2 c2A2e2|d2A2e2 e2d2c2|d2B2f2 d2B2f2|d2B2f2 f2e2d2|c2A2e2 c2A2e2|c2A2e2 e4a2|f2e2d2 c2d2B2|A6 A4:|
|:d2|c2B2A2 B2A2F2|d2A2F2 D4d2|c2B2A2 B2A2F2|A2F2E2 E4d2|c2B2A2 B2A2F2|D2F2A2 d4e2|f2e2d2 c2d2B2|A6 A4:|
|:d2|c2A2A2 e2A2A2|fga2f2 e2d2c2|d2B2B2 f2B2B2|fga2f2 f2e2d2|c2A2A2 e2A2A2|f2A2A2 c2e2a2|f2e2d2 c2d2B2|A6 A4:|
